icons/scratch-filled.svg

<svg width="256" height="256" viewBox="0 0 256 256" fill="none" xmlns="http://www.w3.org/2000/svg">
<path d="M196 0H60C26.8629 0 0 26.8629 0 60V196C0 229.137 26.8629 256 60 256H196C229.137 256 256 229.137 256 196V60C256 26.8629 229.137 0 196 0Z" fill="#855CD6"/>
<path fill-rule="evenodd" clip-rule="evenodd" d="M197.995 148.993C198.228 168.543 189.797 187.36 174.879 200.579C163.007 211.214 148.028 217.323 132.452 217.918C125.252 223.785 116.521 227.274 107.172 227.889C106.174 227.958 105.176 228 104.178 228C80.2962 228 60.2001 208.63 58.3708 183.898C58.3506 183.613 58.3303 183.214 58.31 182.703C58.2847 182.529 58.2644 182.351 58.2644 182.156C57.7982 171.742 58.0313 163.138 58.3303 157.66C58.6039 152.609 58.7762 143.521 58.7965 141.405V141.274C58.9231 133.881 60.6865 126.666 63.894 120.199C62.9819 112.963 63.0022 105.223 63.9801 97.1031L64.1068 95.8401C64.1321 95.6875 64.1321 95.5086 64.1473 95.356C64.1727 95.2245 64.1929 95.0719 64.2132 94.9193C65.0189 88.01 66.4225 76.691 72.3713 65.0879C82.2724 45.6283 101.056 34.0199 122.597 34.0199H123.509C130.288 30.0944 137.914 28 145.753 28H146.584C171.525 28.4631 191.813 49.8644 191.813 75.7228C191.813 76.0069 190.962 107.028 190.004 117.641C195.168 127.019 197.889 137.653 197.995 148.993Z" fill="white"/>
<path fill-rule="evenodd" clip-rule="evenodd" d="M175.996 149.255C176.166 162.216 170.518 174.892 160.496 183.923C151.985 191.676 141.109 195.957 129.919 195.957C127.993 195.936 126.047 195.825 124.141 195.557C123.702 196.178 123.243 196.773 122.765 197.347C118.454 202.493 112.512 205.542 106.027 205.937C105.528 205.979 105.044 206 104.545 206C91.8882 206 81.2418 195.536 80.2989 182.201C80.2789 181.938 80.259 181.669 80.259 181.385L80.239 181.185C79.82 171.69 80.0295 163.874 80.2789 158.992C80.5932 153.342 80.7629 143.736 80.7828 141.661C80.8876 135.167 83.2474 129.274 87.0788 124.787C85.1731 117.836 84.5644 109.489 85.7368 99.6196L85.8865 98.1818C85.9064 98.0712 85.9064 97.9607 85.9264 97.8501C86.5949 92.0676 87.5977 83.5203 91.7185 75.3522C97.8699 63.0763 109.165 56.0299 122.68 56.0299C123.433 56.0299 124.226 56.051 125.044 56.0984C126.466 56.1879 127.908 56.3617 129.31 56.6303C133.7 52.454 139.537 49.8683 145.938 50.0052C159.159 50.2474 169.91 61.7702 169.91 75.684C169.91 75.9894 168.737 113.154 168.174 116.377C167.839 118.389 167.276 120.306 166.542 122.117C172.629 129.538 175.911 138.791 175.996 149.255Z" fill="#F9A83A"/>
<path fill-rule="evenodd" clip-rule="evenodd" d="M123.099 122.554C116.651 121.524 113.209 117.104 114.917 103.43L115.118 101.78C116.554 89.8971 117.759 87.2536 123.34 87.5637C124.971 87.6688 126.853 88.7251 128.731 90.307C130.475 92.3724 134.347 95.0474 136.527 100.345C138.091 104.234 138.63 106.772 138.856 109.5L139.199 112.848V112.832C139.661 115.123 141.374 117.005 143.744 117.414C146.796 117.987 149.74 115.906 150.273 112.779C150.345 112.406 151.725 76.3907 151.725 75.8021C151.725 72.6278 149.243 70.0526 146.124 70.0001C143.016 69.9843 140.492 72.5752 140.492 75.739C140.492 75.8073 140.477 80.7789 140.374 85.7926C135.942 80.8525 130.269 76.4274 123.919 76.0438C106.921 75.1136 105.064 91.1269 103.946 100.355L103.777 101.99C101.484 120.226 107.424 131.73 121.37 133.964C136.527 136.402 146.647 139.971 146.739 149.525C146.796 153.241 144.888 157.051 141.559 159.983C137.548 163.478 132.183 165.05 127.125 164.198C125.556 163.951 124.083 163.51 122.673 163.031C120.688 161.896 115.687 158.78 113.148 155.18C111.009 152.142 110.265 147.37 110.034 144.343C110.06 142.987 110.065 142.089 110.065 141.989C110.122 138.799 107.624 136.203 104.546 136.129C101.422 136.055 98.8577 138.631 98.8013 141.815C98.8013 141.92 98.6628 153.204 98.2576 159.999C97.678 170.946 98.2576 180.217 98.2576 180.621C98.4884 183.801 101.156 186.197 104.264 185.987C107.362 185.819 109.722 183.065 109.506 179.88C109.506 179.828 109.229 175.334 109.265 169.128C113.389 171.824 118.805 174.446 125.253 175.571C133.665 177.016 142.267 174.525 148.837 168.739C154.721 163.583 158.09 156.536 157.998 149.404C157.798 128.114 134.347 124.373 123.099 122.554Z" fill="white"/>
</svg>

<svg xmlns="http://www.w3.org/2000/svg" width="256" height="256" fill="none"><path fill="#855CD6" d="M196 0H60C26.863 0 0 26.863 0 60v136c0 33.137 26.863 60 60 60h136c33.137 0 60-26.863 60-60V60c0-33.137-26.863-60-60-60"/><path fill="#fff" fill-rule="evenodd" d="M197.995 148.993c.233 19.55-8.198 38.367-23.116 51.586-11.872 10.635-26.851 16.744-42.427 17.339-7.2 5.867-15.931 9.356-25.28 9.971-.998.069-1.996.111-2.994.111-23.882 0-43.978-19.37-45.807-44.102q-.03-.428-.061-1.195a4 4 0 0 1-.046-.547c-.466-10.414-.233-19.018.066-24.496.274-5.051.446-14.139.467-16.255v-.131c.126-7.393 1.89-14.608 5.097-21.075-.912-7.236-.892-14.976.086-23.096l.127-1.263c.025-.153.025-.331.04-.484.026-.131.046-.284.066-.437.806-6.909 2.21-18.228 8.158-29.831 9.901-19.46 28.685-31.068 50.226-31.068h.912c6.779-3.926 14.405-6.02 22.244-6.02h.831c24.941.463 45.229 21.864 45.229 47.723 0 .284-.851 31.305-1.809 41.918 5.164 9.378 7.885 20.012 7.991 31.352" clip-rule="evenodd"/><path fill="#F9A83A" fill-rule="evenodd" d="M175.996 149.255c.17 12.961-5.478 25.637-15.5 34.668-8.511 7.753-19.387 12.034-30.577 12.034-1.926-.021-3.872-.132-5.778-.4a29 29 0 0 1-1.376 1.79c-4.311 5.146-10.253 8.195-16.738 8.59-.499.042-.983.063-1.482.063-12.657 0-23.303-10.464-24.246-23.799-.02-.263-.04-.532-.04-.816l-.02-.2c-.419-9.495-.21-17.311.04-22.193.314-5.65.484-15.256.504-17.331.105-6.494 2.464-12.387 6.296-16.874-1.906-6.951-2.515-15.298-1.342-25.167l.15-1.438c.02-.11.02-.221.04-.332.668-5.782 1.67-14.33 5.791-22.498C97.87 63.076 109.166 56.03 122.68 56.03c.753 0 1.546.021 2.364.068a34 34 0 0 1 4.266.532c4.39-4.176 10.227-6.762 16.628-6.625 13.221.242 23.972 11.765 23.972 25.679 0 .305-1.173 37.47-1.736 40.693a27 27 0 0 1-1.632 5.74c6.087 7.421 9.369 16.674 9.454 27.138" clip-rule="evenodd"/><path fill="#fff" fill-rule="evenodd" d="M123.099 122.554c-6.448-1.03-9.89-5.45-8.182-19.124l.201-1.65c1.436-11.883 2.641-14.526 8.222-14.216 1.631.105 3.513 1.161 5.391 2.743 1.744 2.065 5.616 4.74 7.796 10.038 1.564 3.889 2.103 6.427 2.329 9.155l.343 3.348v-.016c.462 2.291 2.175 4.173 4.545 4.582 3.052.573 5.996-1.508 6.529-4.635.072-.373 1.452-36.388 1.452-36.977 0-3.174-2.482-5.75-5.601-5.802-3.108-.016-5.632 2.575-5.632 5.739 0 .068-.015 5.04-.118 10.054-4.432-4.94-10.105-9.366-16.455-9.75-16.998-.93-18.855 15.084-19.973 24.312l-.169 1.635c-2.293 18.236 3.647 29.74 17.593 31.974 15.157 2.438 25.277 6.007 25.369 15.561.057 3.716-1.851 7.526-5.18 10.458-4.011 3.495-9.376 5.067-14.434 4.215-1.569-.247-3.042-.688-4.452-1.167-1.985-1.135-6.986-4.251-9.525-7.851-2.139-3.038-2.883-7.81-3.114-10.837.026-1.356.031-2.254.031-2.354.057-3.19-2.441-5.786-5.519-5.86-3.124-.074-5.688 2.502-5.745 5.686 0 .105-.138 11.389-.543 18.184-.58 10.947 0 20.218 0 20.622.23 3.18 2.898 5.576 6.006 5.366 3.098-.168 5.458-2.922 5.242-6.107 0-.052-.277-4.546-.241-10.752 4.124 2.696 9.54 5.318 15.988 6.443 8.412 1.445 17.014-1.046 23.584-6.832 5.884-5.156 9.253-12.203 9.161-19.335-.2-21.29-23.651-25.031-34.899-26.85" clip-rule="evenodd"/></svg>
